storage/app/icons/phosphoricons/duotone/chat-slash-duotone.svg

<svg xmlns="http://www.w3.org/2000/svg" fill="currentColor" viewBox="0 0 256 256"><path d="M224 64v128a8 8 0 0 1-8 8H80l-34.85 30.11A8 8 0 0 1 32 224V64a8 8 0 0 1 8-8h176a8 8 0 0 1 8 8" opacity=".2"/><path d="M53.92 34.62a8 8 0 1 0-11.84 10.76L44.46 48H40a16 16 0 0 0-16 16v160a15.85 15.85 0 0 0 9.24 14.5A16.1 16.1 0 0 0 40 240a15.94 15.94 0 0 0 10.26-3.78l.08-.07L83 208h106.92l12.16 13.38a8 8 0 1 0 11.84-10.76ZM80 192a8 8 0 0 0-5.23 1.95L40 224V64h19l116.37 128ZM232 64v122a8 8 0 0 1-16 0V64H105.79a8 8 0 0 1 0-16H216a16 16 0 0 1 16 16"/></svg>

<svg xmlns="http://www.w3.org/2000/svg" viewBox="0 0 256 256" fill="currentColor"><path d="M224,64V192a8,8,0,0,1-8,8H80L45.15,230.11A8,8,0,0,1,32,224V64a8,8,0,0,1,8-8H216A8,8,0,0,1,224,64Z" opacity="0.2"/><path d="M53.92,34.62A8,8,0,1,0,42.08,45.38L44.46,48H40A16,16,0,0,0,24,64V224a15.85,15.85,0,0,0,9.24,14.5A16.13,16.13,0,0,0,40,240a15.94,15.94,0,0,0,10.26-3.78l.08-.07L83,208H189.92l12.16,13.38a8,8,0,1,0,11.84-10.76ZM80,192a8,8,0,0,0-5.23,1.95L40,224V64H59L175.37,192ZM232,64V186a8,8,0,0,1-16,0V64H105.79a8,8,0,0,1,0-16H216A16,16,0,0,1,232,64Z"/></svg>
